X:1
T:No. 31. The People to their Land.
T:No. 31              The People to their Land.
T:Air—Zu Mantua in Banden.
T:Words by E. CARPENTER.
T:                          2. The moonlight glides along the shore And silvers all the sands, It gleams on halls and castles hoar Built by our fathers’ hands. But from the scene its beauty fades, The light dies out along the glades : A robber band has seized the land, And we are exiles here. 3. The plowman plows, the sower sows, The reaper reaps the ear, The woodman to the forest goes Before the day grows clear ; But of our toil no fruit we see, The harvest’s not for you and me: A robber band has seized the land, And we are exiles here. 4. The cattle in the sun may lie, The fox by night may roam, The lark may sing all day on high Between its heaven and home ; But we have no place here, to die Is the one right we need not buy : Then high to heaven our vows be given. We’ll have our land or die. 
C:Air—Zu Mantua in Banden.
Z:Words by E. CARPENTER.
%%score { ( 1 2 4 ) | ( 3 5 ) }
L:1/8
M:4/4
K:F
V:1 treble nm="Piano"
V:2 treble 
V:4 treble 
V:3 bass 
V:5 bass 
V:1
"_Air &\nAccompt.\n"!p! C2 | F3 E F2 G2 | (F2 E2) D2 C2 | F3 E F2 G2 | C4 z2 C2 | G3 ^F G2 A2 | %6
w: O|high rocks look- ing|heaven- * ward, O|val- leys green and|fair, Sea|cliffs that seem to|
 (B3 A) G2 =F2 | E2 C2 | A3 G | F4 z2!f! A,2 | D3 F E2 D2 | ^C2 A2 A,3 A | B3 A G2 F2 | %13
w: gird and guard Our|Is- land|once so|dear, In|vain your beau- ty|now ye spread, For|we are num- bered|
 E2 D2 !fermata!A2!p! =C2 | A3 A B2 A2 | G3 D D2 D2 | C2 F2 A3 G | F4 z2 C2 | A3 A B2 A2 | %19
w: with the dead: A|rob- ber band has|seized the land, And|we are ex- iles|here— A|rob- ber band has|
 A G d4 BG | F3 C A3 G | F4 z2 |] %22
w: seized the land, And *|we are ex- iles|here.|
V:2
 C2 | [A,C]3 [G,C] [A,C]2 [B,D]2 | [G,B,]4 [G,B,]2 [G,B,]2 | [A,C]2 B,2 C2 D2 | C4 x2 C2 | %5
 [CE]3 [C^D] [CE]2 [C_E]2 | B,2 C2 D2 D2 | C2 C2 | [B,E]4 | A,4 x2 A,2 | D3 F E2 D2 | %11
 ^C2 A2 A,3 A, | B,3 A, G,2 x2 | x4 [^CE]2 x2 | C3 C D2 C2 | D3 B, B,2 B,2 | A,2 A,2 C2 B,2 | %17
 A,4 x2 C2 | C3 C C2 C2 | D6 D2 | A,3 A, C2 B,2 | A,4 x2 |] %22
V:3
 C,2 | [F,,F,]2 [C,,C,]2 [F,,F,]2 [B,,,B,,]2 | [C,,C,]4 [D,,D,]2 [E,,E,]2 | %3
 [F,,F,]2 [G,,G,]2 [A,,A,]2 [B,,G,]2 | [C,E,G,]4 z2 C,2 | [B,,B,]2 [A,,A,]2 [B,,B,]2 [^F,,^F,]2 | %6
 ([G,,G,]2 [A,,^F,]2) [B,,G,]2 [=B,,G,]2 | [C,G,]2 [C,G,B,]2 | C,4 | [F,,F,]4 z2 A,,2 | %10
 D,3 F, E,2 D,2 | ^C,2 A,2 A,,3 A,, | B,,3 A,, G,,2 [F,,F,]2 | %13
 [E,,E,]2 [D,,D,]2 !fermata![A,,,A,,]2 C,2 | F,,2 F,2 F,2 F,2 | (D,4 G,2) z2 | C,2 C,2 F,2 E,2 | %17
 F,2 E,2 D,2 C,2 | F,,2 F,2 ^F,2 F,2 | G,2 B,2 z2 G,B, | A,3 F, F,2 E,2 | [F,,C,F,]4 z2 |] %22
V:4
 x2 | x8 | x8 | x8 | x8 | x8 | D4 x4 | x4 | x4 | x8 | x8 | x8 | x8 | x8 | x8 | x8 | x8 | x8 | x8 | %19
 x8 | x8 | x6 |] %22
V:5
 x2 | x8 | x8 | x8 | x8 | x8 | x8 | x4 | x4 | x8 | x8 | x8 | x8 | x8 | x8 | B,,6 B,,2 | x4 C,4 | %17
 F,,6 C,2 | x8 | x6 B,,2 | C,2 C,2 C,4 | x6 |] %22

